X:9
T:J\"onsagubbens vals
R:vals
H:efter "J\"onsagubben", Olof Jonsson, Undersvik
A:H\"alsingland
Z:id:hn-vals-9
M:3/4
L:1/8
K:F
c2 | c2 F2 A2 | c4 cd | B2 BA Bc | A2 c2 f2 | a2 c2 f2 | a4 a2 | ag gb eg |
f4 :||: c2 | c2 aa aa | a2 f2 d2 | c2 bb bb | b2 g2 e2 | c2 aa aa | a2 f2 d2 |
cd ef ge | f4 :||: f2 | a3 g=bg | a4 f2 | e^c A2 ce | d^c de fg | a3 g=bg |
a4 f2 | e^c A2 ce | d4:|
<end>
<start>
